packages/ffe-icons/icons/open/300/md/nest_connect.svg

<svg xmlns="http://www.w3.org/2000/svg" height="24" viewBox="0 -960 960 960" width="24"><path d="M479.943-210.001q78.826 0 134.441-55.575Q669.999-321.15 669.999-400v-160q0-78.85-55.558-134.424-55.558-55.575-134.384-55.575t-134.441 55.575Q290.001-638.85 290.001-560v160q0 78.85 55.558 134.424 55.558 55.575 134.384 55.575Zm.012-59.998q-54.186 0-92.071-37.917T349.999-400v-160q0-54.167 37.93-92.084t92.116-37.917q54.186 0 92.071 37.917T610.001-560v160q0 54.167-37.93 92.084t-92.116 37.917ZM480-564.616q14.692 0 25.038-10.346T515.384-600q0-14.692-10.346-25.038T480-635.384q-14.692 0-25.038 10.346T444.616-600q0 14.692 10.346 25.038T480-564.616ZM212.309-60.002q-29.827 0-51.067-21.24-21.241-21.24-21.241-51.067v-695.382q0-29.827 21.241-51.067 21.24-21.241 51.067-21.241h535.382q29.827 0 51.067 21.241 21.241 21.24 21.241 51.067v695.382q0 29.827-21.241 51.067-21.24 21.24-51.067 21.24H212.309Zm0-59.998h535.382q5.385 0 8.847-3.462 3.462-3.462 3.462-8.847v-695.382q0-5.385-3.462-8.847-3.462-3.462-8.847-3.462H212.309q-5.385 0-8.847 3.462-3.462 3.462-3.462 8.847v695.382q0 5.385 3.462 8.847 3.462 3.462 8.847 3.462ZM200-120V-840-120Z"/></svg>

<svg xmlns="http://www.w3.org/2000/svg" height="24" viewBox="0 -960 960 960" width="24"><path d="M479.94-210q78.83 0 134.44-55.58Q670-321.15 670-400v-160q0-78.85-55.56-134.42Q558.88-750 480.06-750q-78.83 0-134.44 55.58Q290-638.85 290-560v160q0 78.85 55.56 134.42Q401.12-210 479.94-210Zm.01-60q-54.18 0-92.07-37.92Q350-345.83 350-400v-160q0-54.17 37.93-92.08Q425.86-690 480.05-690q54.18 0 92.07 37.92Q610-614.17 610-560v160q0 54.17-37.93 92.08Q534.14-270 479.95-270Zm.05-294.62q14.69 0 25.04-10.34 10.34-10.35 10.34-25.04t-10.34-25.04q-10.35-10.34-25.04-10.34t-25.04 10.34q-10.34 10.35-10.34 25.04t10.34 25.04q10.35 10.34 25.04 10.34ZM212.31-60q-29.83 0-51.07-21.24Q140-102.48 140-132.31v-695.38q0-29.83 21.24-51.07Q182.48-900 212.31-900h535.38q29.83 0 51.07 21.24Q820-857.52 820-827.69v695.38q0 29.83-21.24 51.07Q777.52-60 747.69-60H212.31Zm0-60h535.38q5.39 0 8.85-3.46t3.46-8.85v-695.38q0-5.39-3.46-8.85t-8.85-3.46H212.31q-5.39 0-8.85 3.46t-3.46 8.85v695.38q0 5.39 3.46 8.85t8.85 3.46ZM200-120v-720 720Z"/></svg>
